images/Icon1.svg/Client4.svg

<svg width="106" height="60" viewBox="0 0 106 60" fill="none" xmlns="http://www.w3.org/2000/svg">
<path d="M24.1462 21.1028H24.1433C21.7453 21.1028 19.8013 22.8304 19.8013 24.9615V24.964C19.8013 27.0951 21.7453 28.8227 24.1433 28.8227H24.1462C26.5442 28.8227 28.4882 27.0951 28.4882 24.964V24.9615C28.4882 22.8304 26.5442 21.1028 24.1462 21.1028Z" fill="#2196F3"/>
<path d="M56.195 19.8693C56.1882 16.9093 54.8623 14.0722 52.5074 11.979C50.1525 9.88568 46.9604 8.70667 43.6297 8.69995V8.69995C40.298 8.70533 37.1045 9.88374 34.7484 11.9772C32.3922 14.0706 31.0655 16.9084 31.0587 19.8693V36.1921C31.0587 36.1921 56.1922 33.7044 56.195 19.8718V19.8693Z" fill="#2196F3"/>
<path d="M11 41.5495C11.006 43.6091 11.9291 45.5828 13.5676 47.0394C15.2061 48.496 17.4267 49.317 19.7442 49.3231C22.0612 49.317 24.2814 48.4963 25.9197 47.0403C27.5581 45.5843 28.4816 43.6112 28.4884 41.552V30.1943C28.4884 30.1943 11 31.9266 11 41.5495ZM19.7442 43.5844C19.2913 43.5844 18.8486 43.4651 18.472 43.2415C18.0955 43.0179 17.802 42.7001 17.6287 42.3282C17.4554 41.9564 17.41 41.5472 17.4984 41.1525C17.5867 40.7577 17.8048 40.3951 18.125 40.1105C18.4453 39.8259 18.8533 39.6321 19.2975 39.5536C19.7416 39.4751 20.202 39.5154 20.6205 39.6694C21.0389 39.8234 21.3965 40.0843 21.6481 40.4189C21.8997 40.7535 22.034 41.147 22.034 41.5495C22.0351 41.8173 21.9767 42.0828 21.8622 42.3306C21.7476 42.5783 21.5791 42.8036 21.3664 42.9933C21.1536 43.1831 20.9008 43.3337 20.6224 43.4364C20.3441 43.5392 20.0456 43.5921 19.7442 43.5921V43.5844Z" fill="#2196F3"/>
<path d="M35.7302 39.9413V44.2069H34.8513V39.9413H35.7302ZM37.4294 41.7635V42.4491H35.4899V41.7635H37.4294ZM37.6345 39.9413V40.6298H35.4899V39.9413H37.6345ZM41.6481 41.9745V42.1766C41.6481 42.5009 41.6042 42.7919 41.5163 43.0497C41.4284 43.3075 41.3044 43.5272 41.1442 43.7089C40.9841 43.8885 40.7927 44.0262 40.57 44.1219C40.3493 44.2177 40.1042 44.2655 39.8347 44.2655C39.5671 44.2655 39.322 44.2177 39.0993 44.1219C38.8786 44.0262 38.6872 43.8885 38.5251 43.7089C38.363 43.5272 38.237 43.3075 38.1472 43.0497C38.0593 42.7919 38.0153 42.5009 38.0153 42.1766V41.9745C38.0153 41.6483 38.0593 41.3573 38.1472 41.1014C38.235 40.8436 38.3591 40.6239 38.5192 40.4423C38.6813 40.2606 38.8727 40.1219 39.0934 40.0262C39.3161 39.9305 39.5612 39.8827 39.8288 39.8827C40.0983 39.8827 40.3434 39.9305 40.5641 40.0262C40.7868 40.1219 40.9782 40.2606 41.1384 40.4423C41.3005 40.6239 41.4255 40.8436 41.5134 41.1014C41.6032 41.3573 41.6481 41.6483 41.6481 41.9745ZM40.7604 42.1766V41.9686C40.7604 41.7421 40.7399 41.5428 40.6989 41.371C40.6579 41.1991 40.5974 41.0546 40.5173 40.9374C40.4372 40.8202 40.3395 40.7323 40.2243 40.6737C40.1091 40.6132 39.9772 40.5829 39.8288 40.5829C39.6804 40.5829 39.5485 40.6132 39.4333 40.6737C39.32 40.7323 39.2233 40.8202 39.1432 40.9374C39.0651 41.0546 39.0056 41.1991 38.9645 41.371C38.9235 41.5428 38.903 41.7421 38.903 41.9686V42.1766C38.903 42.4012 38.9235 42.6005 38.9645 42.7743C39.0056 42.9462 39.0661 43.0917 39.1462 43.2108C39.2263 43.328 39.3239 43.4169 39.4391 43.4774C39.5544 43.538 39.6862 43.5682 39.8347 43.5682C39.9831 43.5682 40.1149 43.538 40.2302 43.4774C40.3454 43.4169 40.4421 43.328 40.5202 43.2108C40.5983 43.0917 40.6579 42.9462 40.6989 42.7743C40.7399 42.6005 40.7604 42.4012 40.7604 42.1766ZM44.5016 43.0907C44.5016 43.0145 44.4899 42.9462 44.4665 42.8856C44.445 42.8231 44.404 42.7665 44.3434 42.7157C44.2829 42.663 44.1979 42.6112 44.0886 42.5604C43.9792 42.5096 43.8376 42.4569 43.6638 42.4022C43.4704 42.3397 43.2868 42.2694 43.113 42.1913C42.9411 42.1132 42.7888 42.0223 42.6559 41.9188C42.5251 41.8134 42.4216 41.6913 42.3454 41.5526C42.2712 41.4139 42.2341 41.2528 42.2341 41.0692C42.2341 40.8915 42.2731 40.7303 42.3513 40.5858C42.4294 40.4393 42.5388 40.3143 42.6794 40.2108C42.82 40.1053 42.986 40.0243 43.1774 39.9677C43.3708 39.911 43.5827 39.8827 43.8132 39.8827C44.1276 39.8827 44.402 39.9393 44.6364 40.0526C44.8708 40.1659 45.0524 40.3212 45.1813 40.5184C45.3122 40.7157 45.3776 40.9413 45.3776 41.1952H44.5046C44.5046 41.0702 44.4782 40.9608 44.4255 40.8671C44.3747 40.7714 44.2966 40.6962 44.1911 40.6415C44.0876 40.5868 43.9567 40.5594 43.7985 40.5594C43.6462 40.5594 43.5192 40.5829 43.4177 40.6298C43.3161 40.6747 43.2399 40.7362 43.1891 40.8143C43.1384 40.8905 43.113 40.9764 43.113 41.0721C43.113 41.1444 43.1306 41.2098 43.1657 41.2684C43.2028 41.327 43.2575 41.3817 43.3298 41.4325C43.402 41.4833 43.4909 41.5311 43.5964 41.576C43.7018 41.621 43.8239 41.6649 43.9626 41.7079C44.195 41.7782 44.3991 41.8573 44.5749 41.9452C44.7526 42.0331 44.9011 42.1317 45.0202 42.2411C45.1393 42.3505 45.2292 42.4745 45.2897 42.6132C45.3503 42.7518 45.3806 42.9091 45.3806 43.0848C45.3806 43.2704 45.3444 43.4364 45.2722 43.5829C45.1999 43.7294 45.0954 43.8534 44.9587 43.955C44.822 44.0565 44.6589 44.1337 44.4694 44.1864C44.28 44.2391 44.0681 44.2655 43.8337 44.2655C43.6227 44.2655 43.4147 44.2382 43.2097 44.1835C43.0046 44.1268 42.8181 44.0419 42.6501 43.9286C42.4841 43.8153 42.3513 43.6708 42.2516 43.495C42.152 43.3192 42.1022 43.1112 42.1022 42.871H42.9841C42.9841 43.0038 43.0046 43.1161 43.0456 43.2079C43.0866 43.2997 43.1442 43.3739 43.2184 43.4305C43.2946 43.4872 43.3845 43.5282 43.488 43.5536C43.5934 43.579 43.7087 43.5917 43.8337 43.5917C43.986 43.5917 44.111 43.5702 44.2087 43.5272C44.3083 43.4843 44.3815 43.4247 44.4284 43.3485C44.4772 43.2723 44.5016 43.1864 44.5016 43.0907ZM47.8854 39.9413V44.2069H47.0095V39.9413H47.8854ZM49.1979 39.9413V40.6298H45.7175V39.9413H49.1979ZM52.5612 43.5214V44.2069H50.2907V43.5214H52.5612ZM50.5778 39.9413V44.2069H49.6989V39.9413H50.5778ZM52.2653 41.6786V42.3466H50.2907V41.6786H52.2653ZM52.5583 39.9413V40.6298H50.2907V39.9413H52.5583ZM53.0739 39.9413H54.6647C54.9909 39.9413 55.2712 39.9901 55.5056 40.0878C55.7419 40.1854 55.9235 40.33 56.0505 40.5214C56.1774 40.7128 56.2409 40.9481 56.2409 41.2274C56.2409 41.4559 56.2018 41.6522 56.1237 41.8163C56.0475 41.9784 55.9391 42.1141 55.7985 42.2235C55.6599 42.3309 55.4968 42.4169 55.3093 42.4813L55.0309 42.6278H53.6481L53.6423 41.9423H54.6706C54.8249 41.9423 54.9528 41.9149 55.0544 41.8602C55.1559 41.8055 55.2321 41.7294 55.2829 41.6317C55.3356 41.5341 55.362 41.4208 55.362 41.2919C55.362 41.1552 55.3366 41.037 55.2858 40.9374C55.235 40.8378 55.1579 40.7616 55.0544 40.7089C54.9509 40.6561 54.821 40.6298 54.6647 40.6298H53.9528V44.2069H53.0739V39.9413ZM55.4587 44.2069L54.486 42.3055L55.4147 42.2997L56.3991 44.1659V44.2069H55.4587ZM60.0729 42.6864H58.986V42.0009H60.0729C60.2409 42.0009 60.3776 41.9735 60.4831 41.9188C60.5886 41.8622 60.6657 41.7841 60.7145 41.6844C60.7634 41.5848 60.7878 41.4725 60.7878 41.3475C60.7878 41.2206 60.7634 41.1024 60.7145 40.993C60.6657 40.8837 60.5886 40.7958 60.4831 40.7294C60.3776 40.663 60.2409 40.6298 60.0729 40.6298H59.2907V44.2069H58.4118V39.9413H60.0729C60.4069 39.9413 60.6931 40.0018 60.9313 40.1229C61.1716 40.2421 61.3552 40.4071 61.4821 40.618C61.6091 40.829 61.6725 41.0702 61.6725 41.3417C61.6725 41.6171 61.6091 41.8553 61.4821 42.0565C61.3552 42.2577 61.1716 42.413 60.9313 42.5223C60.6931 42.6317 60.4069 42.6864 60.0729 42.6864ZM65.1413 43.5214V44.2069H62.8708V43.5214H65.1413ZM63.1579 39.9413V44.2069H62.279V39.9413H63.1579ZM64.8454 41.6786V42.3466H62.8708V41.6786H64.8454ZM65.1384 39.9413V40.6298H62.8708V39.9413H65.1384ZM67.6198 39.9413V44.2069H66.7438V39.9413H67.6198ZM68.9323 39.9413V40.6298H65.4518V39.9413H68.9323ZM72.2956 43.5214V44.2069H70.0251V43.5214H72.2956ZM70.3122 39.9413V44.2069H69.4333V39.9413H70.3122ZM71.9997 41.6786V42.3466H70.0251V41.6786H71.9997ZM72.2927 39.9413V40.6298H70.0251V39.9413H72.2927ZM72.8083 39.9413H74.3991C74.7253 39.9413 75.0056 39.9901 75.2399 40.0878C75.4763 40.1854 75.6579 40.33 75.7849 40.5214C75.9118 40.7128 75.9753 40.9481 75.9753 41.2274C75.9753 41.4559 75.9362 41.6522 75.8581 41.8163C75.7819 41.9784 75.6735 42.1141 75.5329 42.2235C75.3942 42.3309 75.2311 42.4169 75.0436 42.4813L74.7653 42.6278H73.3825L73.3766 41.9423H74.405C74.5593 41.9423 74.6872 41.9149 74.7888 41.8602C74.8903 41.8055 74.9665 41.7294 75.0173 41.6317C75.07 41.5341 75.0964 41.4208 75.0964 41.2919C75.0964 41.1552 75.071 41.037 75.0202 40.9374C74.9694 40.8378 74.8923 40.7616 74.7888 40.7089C74.6852 40.6561 74.5554 40.6298 74.3991 40.6298H73.6872V44.2069H72.8083V39.9413ZM75.1931 44.2069L74.2204 42.3055L75.1491 42.2997L76.1335 44.1659V44.2069H75.1931ZM78.8727 43.0907C78.8727 43.0145 78.861 42.9462 78.8376 42.8856C78.8161 42.8231 78.7751 42.7665 78.7145 42.7157C78.654 42.663 78.569 42.6112 78.4597 42.5604C78.3503 42.5096 78.2087 42.4569 78.0349 42.4022C77.8415 42.3397 77.6579 42.2694 77.4841 42.1913C77.3122 42.1132 77.1599 42.0223 77.027 41.9188C76.8962 41.8134 76.7927 41.6913 76.7165 41.5526C76.6423 41.4139 76.6052 41.2528 76.6052 41.0692C76.6052 40.8915 76.6442 40.7303 76.7224 40.5858C76.8005 40.4393 76.9099 40.3143 77.0505 40.2108C77.1911 40.1053 77.3571 40.0243 77.5485 39.9677C77.7419 39.911 77.9538 39.8827 78.1843 39.8827C78.4987 39.8827 78.7731 39.9393 79.0075 40.0526C79.2419 40.1659 79.4235 40.3212 79.5524 40.5184C79.6833 40.7157 79.7487 40.9413 79.7487 41.1952H78.8757C78.8757 41.0702 78.8493 40.9608 78.7966 40.8671C78.7458 40.7714 78.6677 40.6962 78.5622 40.6415C78.4587 40.5868 78.3278 40.5594 78.1696 40.5594C78.0173 40.5594 77.8903 40.5829 77.7888 40.6298C77.6872 40.6747 77.611 40.7362 77.5602 40.8143C77.5095 40.8905 77.4841 40.9764 77.4841 41.0721C77.4841 41.1444 77.5016 41.2098 77.5368 41.2684C77.5739 41.327 77.6286 41.3817 77.7009 41.4325C77.7731 41.4833 77.862 41.5311 77.9675 41.576C78.0729 41.621 78.195 41.6649 78.3337 41.7079C78.5661 41.7782 78.7702 41.8573 78.946 41.9452C79.1237 42.0331 79.2722 42.1317 79.3913 42.2411C79.5104 42.3505 79.6003 42.4745 79.6608 42.6132C79.7214 42.7518 79.7516 42.9091 79.7516 43.0848C79.7516 43.2704 79.7155 43.4364 79.6432 43.5829C79.571 43.7294 79.4665 43.8534 79.3298 43.955C79.1931 44.0565 79.03 44.1337 78.8405 44.1864C78.6511 44.2391 78.4391 44.2655 78.2048 44.2655C77.9938 44.2655 77.7858 44.2382 77.5807 44.1835C77.3757 44.1268 77.1891 44.0419 77.0212 43.9286C76.8552 43.8153 76.7224 43.6708 76.6227 43.495C76.5231 43.3192 76.4733 43.1112 76.4733 42.871H77.3552C77.3552 43.0038 77.3757 43.1161 77.4167 43.2079C77.4577 43.2997 77.5153 43.3739 77.5895 43.4305C77.6657 43.4872 77.7556 43.5282 77.8591 43.5536C77.9645 43.579 78.0798 43.5917 78.2048 43.5917C78.3571 43.5917 78.4821 43.5702 78.5798 43.5272C78.6794 43.4843 78.7526 43.4247 78.7995 43.3485C78.8483 43.2723 78.8727 43.1864 78.8727 43.0907Z" fill="#2196F3"/>
</svg>

<svg width="106" height="60" fill="none" xmlns="http://www.w3.org/2000/svg"><path d="M24.146 21.103h-.003c-2.398 0-4.342 1.727-4.342 3.858v.003c0 2.131 1.944 3.859 4.342 3.859h.003c2.398 0 4.342-1.728 4.342-3.859v-.002c0-2.132-1.944-3.86-4.342-3.86ZM56.195 19.87c-.007-2.96-1.333-5.798-3.688-7.891C50.153 9.886 46.96 8.707 43.63 8.7c-3.332.005-6.526 1.184-8.882 3.277-2.356 2.094-3.682 4.931-3.69 7.892v16.323s25.134-2.488 25.137-16.32v-.003ZM11 41.55c.006 2.06.93 4.033 2.568 5.49 1.638 1.456 3.859 2.277 6.176 2.283 2.317-.006 4.537-.827 6.176-2.283 1.638-1.456 2.562-3.429 2.568-5.488V30.194S11 31.927 11 41.55Zm8.744 2.034c-.453 0-.895-.119-1.272-.343a2.107 2.107 0 0 1-.843-.913 1.825 1.825 0 0 1-.13-1.175c.088-.395.306-.758.626-1.042.32-.285.728-.479 1.172-.557a2.558 2.558 0 0 1 1.323.115c.419.154.776.415 1.028.75s.386.728.386 1.13c.001.268-.057.534-.172.782a2.036 2.036 0 0 1-.496.662c-.212.19-.465.34-.744.443a2.539 2.539 0 0 1-.878.156v-.008ZM35.73 39.941v4.266h-.879V39.94h.88Zm1.7 1.822v.686h-1.94v-.685h1.94Zm.205-1.822v.689H35.49v-.689h2.145Zm4.013 2.033v.203c0 .324-.044.615-.132.873a1.92 1.92 0 0 1-.372.659c-.16.18-.351.317-.574.413-.22.096-.466.144-.735.144-.268 0-.513-.048-.736-.144a1.649 1.649 0 0 1-.574-.413 1.93 1.93 0 0 1-.378-.66 2.696 2.696 0 0 1-.132-.872v-.203c0-.326.044-.617.132-.873.088-.257.212-.477.372-.659a1.63 1.63 0 0 1 .574-.416c.223-.096.468-.143.736-.143.27 0 .514.047.735.143.223.096.414.235.574.416.163.182.288.402.375.66.09.255.135.546.135.873Zm-.888.203v-.208c0-.227-.02-.426-.061-.598a1.295 1.295 0 0 0-.182-.434.785.785 0 0 0-.293-.263.838.838 0 0 0-.395-.091c-.149 0-.28.03-.396.09a.792.792 0 0 0-.29.264 1.338 1.338 0 0 0-.178.434 2.592 2.592 0 0 0-.062.598v.208c0 .224.02.423.062.597.04.172.101.318.181.437a.81.81 0 0 0 .293.266c.115.061.247.091.396.091.148 0 .28-.03.395-.09a.786.786 0 0 0 .29-.267 1.37 1.37 0 0 0 .179-.437c.04-.174.061-.373.061-.597Zm3.742.914a.566.566 0 0 0-.035-.205.387.387 0 0 0-.124-.17 1.092 1.092 0 0 0-.254-.156 3.605 3.605 0 0 0-.425-.158 5.377 5.377 0 0 1-.551-.21 2.265 2.265 0 0 1-.457-.273 1.228 1.228 0 0 1-.31-.366 1.01 1.01 0 0 1-.112-.484 1 1 0 0 1 .117-.483c.078-.147.188-.272.328-.375.141-.106.307-.187.498-.243.194-.057.406-.085.636-.085.315 0 .589.056.823.17.235.113.416.268.545.465.131.198.197.423.197.677h-.873a.658.658 0 0 0-.08-.328.535.535 0 0 0-.234-.225.835.835 0 0 0-.393-.083.908.908 0 0 0-.38.07.508.508 0 0 0-.229.185.455.455 0 0 0-.076.258c0 .072.018.138.053.196a.594.594 0 0 0 .164.164c.072.051.16.1.266.144.106.045.228.089.367.132.232.07.436.15.612.237.178.088.326.187.445.296.12.11.21.233.27.372.06.139.09.296.09.472a1.024 1.024 0 0 1-.422.87c-.136.102-.3.179-.489.231a2.37 2.37 0 0 1-.635.08 2.41 2.41 0 0 1-.624-.082 1.897 1.897 0 0 1-.56-.255 1.286 1.286 0 0 1-.398-.434c-.1-.176-.15-.384-.15-.624h.882c0 .133.02.245.062.337a.562.562 0 0 0 .172.223.742.742 0 0 0 .27.123c.105.025.22.038.346.038a.937.937 0 0 0 .375-.065.462.462 0 0 0 .293-.436Zm3.383-3.15v4.266h-.875V39.94h.875Zm1.313 0v.689h-3.48v-.689h3.48Zm3.363 3.58v.686h-2.27v-.686h2.27Zm-1.983-3.58v4.266h-.88V39.94h.88Zm1.687 1.738v.668h-1.974v-.668h1.974Zm.293-1.738v.689h-2.267v-.689h2.267Zm.516 0h1.59c.327 0 .607.05.842.147.236.097.417.242.544.433.127.192.19.427.19.706 0 .229-.038.425-.116.59a1.103 1.103 0 0 1-.326.407 1.685 1.685 0 0 1-.489.257l-.278.147h-1.383l-.006-.686h1.029a.803.803 0 0 0 .383-.082.538.538 0 0 0 .229-.228.704.704 0 0 0 .079-.34.771.771 0 0 0-.076-.355.514.514 0 0 0-.232-.228.853.853 0 0 0-.39-.08h-.711v3.578h-.88V39.94Zm2.385 4.266-.973-1.901.929-.006.984 1.866v.04h-.94Zm4.614-1.52h-1.087V42h1.087a.89.89 0 0 0 .41-.082.525.525 0 0 0 .232-.235.859.859 0 0 0 0-.691.592.592 0 0 0-.232-.264.76.76 0 0 0-.41-.1h-.782v3.578h-.88V39.94h1.662c.334 0 .62.06.858.182.24.12.424.284.551.495.127.211.19.452.19.724 0 .275-.063.513-.19.715-.127.2-.31.356-.55.465-.239.11-.525.164-.86.164Zm5.068.834v.686h-2.27v-.686h2.27Zm-1.983-3.58v4.266h-.879V39.94h.879Zm1.687 1.738v.668h-1.974v-.668h1.974Zm.293-1.738v.689h-2.267v-.689h2.267Zm2.482 0v4.266h-.876V39.94h.876Zm1.312 0v.689h-3.48v-.689h3.48Zm3.364 3.58v.686h-2.27v-.686h2.27Zm-1.984-3.58v4.266h-.879V39.94h.88ZM72 41.68v.668h-1.975v-.668H72Zm.293-1.738v.689h-2.268v-.689h2.268Zm.515 0H74.4c.326 0 .607.05.84.147.237.097.419.242.546.433.127.192.19.427.19.706 0 .229-.039.425-.117.59a1.103 1.103 0 0 1-.325.407 1.687 1.687 0 0 1-.49.257l-.278.147h-1.383l-.005-.686h1.028a.803.803 0 0 0 .384-.082.538.538 0 0 0 .228-.228.704.704 0 0 0 .08-.34.771.771 0 0 0-.077-.355.514.514 0 0 0-.231-.228.854.854 0 0 0-.39-.08h-.712v3.578h-.879V39.94Zm2.385 4.266-.973-1.901.93-.006.983 1.866v.04h-.94Zm3.68-1.116a.566.566 0 0 0-.035-.205.387.387 0 0 0-.123-.17 1.092 1.092 0 0 0-.255-.156 3.605 3.605 0 0 0-.425-.158 5.377 5.377 0 0 1-.55-.21 2.265 2.265 0 0 1-.458-.273 1.228 1.228 0 0 1-.31-.366 1.01 1.01 0 0 1-.112-.484 1 1 0 0 1 .117-.483c.079-.147.188-.272.329-.375.14-.106.306-.187.498-.243.193-.057.405-.085.635-.085.315 0 .59.056.823.17.235.113.416.268.545.465.131.198.197.423.197.677h-.873a.658.658 0 0 0-.08-.328.535.535 0 0 0-.234-.225.835.835 0 0 0-.392-.083.908.908 0 0 0-.381.07.508.508 0 0 0-.229.185.455.455 0 0 0-.076.258c0 .072.018.138.053.196a.594.594 0 0 0 .164.164c.072.051.161.1.267.144.105.045.227.089.366.132.232.07.436.15.612.237.178.088.326.187.445.296.12.11.21.233.27.372.06.139.09.296.09.472 0 .185-.035.351-.108.498-.072.146-.177.27-.313.372-.137.102-.3.179-.49.231-.189.053-.4.08-.635.08-.211 0-.42-.028-.624-.082a1.896 1.896 0 0 1-.56-.255 1.286 1.286 0 0 1-.398-.434c-.1-.176-.15-.384-.15-.624h.882c0 .133.02.245.062.337a.562.562 0 0 0 .172.223.742.742 0 0 0 .27.123c.106.025.22.038.346.038a.937.937 0 0 0 .375-.065.462.462 0 0 0 .293-.436Z" fill="#2196F3"/></svg>
